src/assets/img/values/illo-equation.svg

<svg fill="none" height="128" viewBox="0 0 128 128" width="128" xmlns="http://www.w3.org/2000/svg"><path d="m110.337 16.5663-.092-.092-.142-.077c-.663-.2823-1.38-.4171-2.1-.395-2.476 0-5.692 1.065-7.049 3.1l-.059.089-.046.125c-.434 1.305-.457 2.052-.077 2.578.122.167.282.3018.468.3928.185.0909.39.1353.597.1292 1.009-.157 1.955-.5884 2.736-1.247.852-.5737 1.833-.9276 2.855-1.03.285 0 .451.058.492.173.21.578-.535 2.313-2.8 4.2l-.088.077-.056.074c-1.548 2.064-2.24 3.3-1.726 4.329.462.922 1.632 1.111 3.246 1.111h6.188c1.929.965 2.654 1.326 3.345 1.326.292-.0174.576-.0968.835-.2329.259-.136.485-.3256.665-.5561l.091-.092.077-.142c.175-.3013.275-.6403.291-.9884.017-.348-.05-.695-.196-1.0116-.543-1.111-2.04-1.784-5.518-2.479-.484-.122-.941-.231-1.339-.326l-.035-.008c-.412-.1-.8-.192-1.108-.275 1.636-6.555 1.194-8.103.545-8.752z" fill="#facc15"/><path d="m94.4 80.7233v.079c0 5-2.752 14.611-5.482 21.9227-.2091.22-.3522.494-.4129.791-.0606.297-.0364.605.0699.889.1025.249.2778.462.503.609.2252.148.4897.225.759.219.3795-.005.7467-.136 1.044-.372.743-.209 1.88-1.453 4.083-9.0066 1.4947-5.1651 2.7045-10.4083 3.624-15.7061 1.0168-7.999 1.555-16.0517 1.612-24.115.8-12.746.8-14.6-1.646-20.321-2.933-10.744-4.34-12.71-6.053-12.71-.2786.0039-.5524.0724-.8.2l-.116.058-.117.111c-1.259 1.259-.365 3.046 1.413 6.6 1.32 3.313 2.093 7.245 3.265 13.195l.02.105c.2 1.017.412 2.092.638 3.213-.015 2.756-.816 26.3161-2.382 34.1461z" fill="#57534e"/><path d="m61.703 83.8983-.034.017-.571.282-.121.0731c-4.8812 3.4346-9.2556 7.5381-12.995 12.1899-3.3 4.1197-4.445 10.2517-2.318 12.3787l.264.263h.372c1.312 0 7.261-3.688 11.037-7.463 3.753-3.7547 7.351-7.9547 8.244-13.2487.7-2.805 1.27-3.457 4.322-4.983.8758-.4218 1.8287-.66 2.8-.7.72 0 2.213 0 2.463-1.308.2817-.2433.485-.5647.5841-.9235.0992-.3588.0897-.739-.0271-1.0924-.1529-.3223-.4042-.5878-.7176-.7581-.3134-.1704-.6728-.2369-1.0264-.19-1.1277.0723-2.2257.3918-3.216.936-.9428.3772-1.9254.6456-2.929.8-.0416.001-.0831-.0024-.124-.0099-.279-.375.008-2.9551.285-5.4481.619-4.329.793-5.8719.01-6.7749-.2196-.2235-.4858-.3957-.7797-.5043-.2939-.1085-.6082-.1508-.9203-.1238-1.3 0-1.7.4-1.7 1.7 0 .671-3.114 3.226-4.878 3.226-.0744.005-.1489-.0055-.219-.031l-.17-.084-.233-.011c-.4827.016-.9659-.002-1.446-.054-.0519-.4801-.07-.9633-.054-1.446 0-1.524-.011-2.4519-1.6-2.4919 1.146-.275 3.623-.8551 6.478-1.4251 1.509-.3 2.884-.6 4.1-.862l.061-.013c1.5-.325 2.919-.6319 3.5-.6999.3063.1289.6347.1968.967.1999 1.4 0 2.4-1.3 2.494-3.227.0644-.1278.1005-.268.106-.411s-.0197-.2855-.074-.418c-.1253-.2321-.3184-.4207-.5534-.5405-.2351-.1199-.5011-.1654-.7626-.1305-3.1525.324-6.2846.8224-9.382 1.493l-2.4.438c-4.5.9-6.338 1.852-6.338 3.285v2.753l1.044-.2609c-.3765.2529-.661.6209-.811 1.0489-.3308.8215-.4376 1.716-.3093 2.5923.1282.8762.4869 1.7026 1.0393 2.3947.581 1 1.943 1.572 3.737 1.572 1.663.0039 3.2929-.4646 4.7-1.351l1-.667v3.918c-.001 4.668-.331 4.83-2.898 6.091zm-14.5 21.8997c.2804-3.52 1.6736-6.8603 3.978-9.5367 3.135-3.918 10.947-9.5459 12.473-9.6299h.034c.0515-.0056.1032.0083.145.0389l.026.0191c.0606.0347.1116.0839.1485.1433.0368.0593.0583.1269.0625.1966.315 1.939-4.714 9.574-8.234 13.0997-4.838 4.031-8.389 6.239-8.714 5.983-.009-.007-.025-.074.071-.264z" fill="#facc15"/><path d="m77.74 52.0893c-.1076-.3194-.3209-.5926-.6047-.7744s-.6211-.2614-.9563-.2256c-.4431.0121-.8816.0927-1.3.2391-.4683.091-.9536.025-1.3806-.1881-.4269-.213-.7715-.561-.9804-.99-1.182-1.911-1.114-5.2999.15-7.8769 1.277-1.8 2.672-4.1811 2.07-5.3501-.0988-.1955-.2506-.3593-.438-.4728s-.4029-.1721-.622-.1692c-1.469 0-3.2 2.606-4.1 4.169l-2.48 2.479-.863-.863c-.2367-.625-.6714-1.1553-1.2379-1.51-.5665-.3546-1.2335-.5141-1.8991-.454h-.37l-.264.264c-.338.2638-.5903.6218-.725 1.0289-.1347.407-.1459.8448-.032 1.2581.0928.2167.2396.406.4264.5497.1868.1438.4074.2372.6406.2714 2.5 1.895.524 5.85-.445 7.465l-.034.0609c-1.055 2.109-1.7 3.458-1.7 4.4v.189l.095.214c.349.7.709 1.418 1.519 1.418 1 0 1.465-.8199 4.066-5.3709l1.454-2.9001.1.3c.767 3.016 3.618 6.375 6.482 6.375.3628.0013.7235-.0561 1.068-.17l.1-.034.112-.071c1.663-1.102 2.443-2.291 2.149-3.261z" fill="#facc15"/><path d="m33.905 86.2004c-.383-.767-.783-1.7661-1.174-2.7451-.386-.963-.785-1.96-1.179-2.756-.812-3.192-1.769-3.8-3.252-3.8h-.372l-.264.264c-1.0108 1.0498-1.6633 2.3926-1.864 3.836-.043.8177-.1995 1.6255-.465 2.4-.1585.465-.2677.9453-.326 1.433-.1345.3096-.1948.6463-.1761.9834.0188.337.116.6649.2841.9576.1179.1642.2736.2975.4539.3887.1804.0912.38.1376.5821.1354 1.148 0 2.4-1.463 2.954-3.429l1.528 4.582c.322 1.284.758 2.658 1.18 3.987.5499 1.4768.9469 3.0061 1.185 4.564v2.957l.5.2476c.3041.159.6411.244.984.248 2.039 0 2.792-2.9326 3.5-6.4756l.017-.1001v-.08c-.0707-1.7519.3958-3.4836 1.337-4.963l.263-.264v-.373c.1505-1.3427.387-2.6745.708-3.987.52-2.484 1.233-5.885 1.685-9.5.6989-5.8398 1.7488-11.6323 3.144-17.346 1.78-2.785 3.415-8.86 4.037-11.35.4323-2.0092 1.0201-3.9818 1.758-5.9.3359-.7351.561-1.5159.668-2.317 0-3.3 1.656-6.3 2.3-6.3h.13l.155-.046c2.262-.754 9.018-.754 21.274-.754 3.934.328 6.309.526 7.6.526.907 0 1.747-.062 2.055-.8.317-.765-.282-1.364-.975-2.056l-.071-.069-.067-.045c-2.264-1.508-12.974-2.06-19.691-2.07h-.2c-3.219 0-6.22.112-8.685.317l-4.874.809-.6.1-1.733 7.8001c-.463 2.316-1.472 5.9999-2.542 9.9119l-.01.038c-.77 2.814-1.566 5.724-2.228 8.37-2.353 6.288-4.014 13.6-4.037 17.749-.774 3.1-2.385 9.541-3.193 14.383-.4 2.015-.728 3.6401-.982 4.7831-.6888-1.174-1.1086-2.4862-1.229-3.842v-.1891z" fill="#7e22ce"/><path d="m26.345 23.9993c-.3006-.2132-.6551-.3376-1.023-.359-1.028 0-1.366.628-3.565 4.717-.5.934-1.108 2.06-1.849 3.417-2.5789 5.2148-4.7433 10.6245-6.473 16.179-2.435 8.117-2.435 9.84-2.435 21.049 0 8.131 0 12.212 1.7 15.6.9316 2.4288 1.439 4.9995 1.5 7.6001v.112l.035.136c1.4637 5.3999 3.6445 10.5796 6.484 15.3996l.053.093.092.1c.5177.531 1.0064 1.09 1.464 1.673.841 1.039 1.448 1.79 2.372 1.79.508-.007 1.0019-.168 1.4172-.46.4154-.293.7328-.704.9108-1.18.2542-.664.3053-1.389.1466-2.083-.1586-.693-.5198-1.324-1.0376-1.812l-.044-.042c-6.312-5.523-10.893-21.7237-10.893-38.5227 0-11.3.885-16.022 4.731-25.253l.032-.083.016-.068c1.589-7.151 3.126-10.16 5.4-13.2 1.688-1.7 1.822-2.685 1.822-3.795v-.556l-.5-.249c-.134-.073-.249-.14-.356-.203z" fill="#57534e"/></svg>

<svg width="128" height="128" viewBox="0 0 128 128" fill="none" xmlns="http://www.w3.org/2000/svg">
<path d="M110.337 16.5663L110.245 16.4743L110.103 16.3973C109.44 16.115 108.723 15.9802 108.003 16.0023C105.527 16.0023 102.311 17.0673 100.954 19.1023L100.895 19.1913L100.849 19.3163C100.415 20.6213 100.392 21.3683 100.772 21.8943C100.894 22.0613 101.054 22.1961 101.24 22.2871C101.425 22.378 101.63 22.4224 101.837 22.4163C102.846 22.2593 103.792 21.8279 104.573 21.1693C105.425 20.5956 106.406 20.2417 107.428 20.1393C107.713 20.1393 107.879 20.1973 107.92 20.3123C108.13 20.8903 107.385 22.6253 105.12 24.5123L105.032 24.5893L104.976 24.6633C103.428 26.7273 102.736 27.9633 103.25 28.9923C103.712 29.9143 104.882 30.1033 106.496 30.1033H112.684C114.613 31.0683 115.338 31.4293 116.029 31.4293C116.321 31.4119 116.605 31.3325 116.864 31.1964C117.123 31.0604 117.349 30.8708 117.529 30.6403L117.62 30.5483L117.697 30.4063C117.872 30.105 117.972 29.766 117.988 29.4179C118.005 29.0699 117.938 28.7229 117.792 28.4063C117.249 27.2953 115.752 26.6223 112.274 25.9273C111.79 25.8053 111.333 25.6963 110.935 25.6013L110.9 25.5933C110.488 25.4933 110.1 25.4013 109.792 25.3183C111.428 18.7633 110.986 17.2153 110.337 16.5663Z" fill="#FACC15"/>
<path d="M94.4 80.7233V80.8023C94.4 85.8023 91.648 95.4133 88.918 102.725C88.7089 102.945 88.5658 103.219 88.5051 103.516C88.4445 103.813 88.4687 104.121 88.575 104.405C88.6775 104.654 88.8528 104.867 89.078 105.014C89.3032 105.162 89.5677 105.239 89.837 105.233C90.2165 105.228 90.5837 105.097 90.881 104.861C91.624 104.652 92.761 103.408 94.964 95.8544C96.4587 90.6893 97.6685 85.4461 98.588 80.1483C99.6048 72.1493 100.143 64.0966 100.2 56.0333C101 43.2873 101 41.4333 98.554 35.7123C95.621 24.9683 94.214 23.0023 92.501 23.0023C92.2224 23.0062 91.9486 23.0747 91.701 23.2023L91.585 23.2603L91.468 23.3713C90.209 24.6303 91.103 26.4173 92.881 29.9713C94.201 33.2843 94.974 37.2163 96.146 43.1663L96.166 43.2713C96.366 44.2883 96.578 45.3633 96.804 46.4843C96.789 49.2403 95.988 72.8004 94.422 80.6304L94.4 80.7233Z" fill="#57534E"/>
<path d="M61.703 83.8983L61.669 83.9153L61.098 84.1973L60.977 84.2704C56.0958 87.705 51.7214 91.8085 47.982 96.4603C44.682 100.58 43.537 106.712 45.664 108.839L45.928 109.102H46.3C47.612 109.102 53.561 105.414 57.337 101.639C61.09 97.8843 64.688 93.6843 65.581 88.3903C66.281 85.5853 66.851 84.9333 69.903 83.4073C70.7788 82.9855 71.7317 82.7473 72.703 82.7073C73.423 82.7073 74.916 82.7073 75.166 81.3993C75.4477 81.156 75.651 80.8346 75.7501 80.4758C75.8493 80.117 75.8398 79.7368 75.723 79.3834C75.5701 79.0611 75.3188 78.7956 75.0054 78.6253C74.692 78.4549 74.3326 78.3884 73.979 78.4353C72.8513 78.5076 71.7533 78.8271 70.763 79.3713C69.8202 79.7485 68.8376 80.0169 67.834 80.1713C67.7924 80.1723 67.7509 80.1689 67.71 80.1614C67.431 79.7864 67.718 77.2063 67.995 74.7133C68.614 70.3843 68.788 68.8414 68.005 67.9384C67.7854 67.7149 67.5192 67.5427 67.2253 67.4341C66.9314 67.3256 66.6171 67.2833 66.305 67.3103C65.005 67.3103 64.605 67.7103 64.605 69.0103C64.605 69.6813 61.491 72.2363 59.727 72.2363C59.6526 72.2413 59.5781 72.2308 59.508 72.2053L59.338 72.1213L59.105 72.1103C58.6223 72.1263 58.1391 72.1083 57.659 72.0563C57.6071 71.5762 57.589 71.093 57.605 70.6103C57.605 69.0863 57.594 68.1584 56.005 68.1184C57.151 67.8434 59.628 67.2633 62.483 66.6933C63.992 66.3933 65.367 66.0933 66.583 65.8313L66.644 65.8183C68.144 65.4933 69.563 65.1864 70.144 65.1184C70.4503 65.2473 70.7787 65.3152 71.111 65.3183C72.511 65.3183 73.511 64.0183 73.605 62.0913C73.6694 61.9635 73.7055 61.8233 73.711 61.6803C73.7165 61.5373 73.6913 61.3948 73.637 61.2623C73.5117 61.0302 73.3186 60.8416 73.0836 60.7218C72.8485 60.6019 72.5825 60.5564 72.321 60.5913C69.1685 60.9153 66.0364 61.4137 62.939 62.0843L60.539 62.5223C56.039 63.4223 54.201 64.3743 54.201 65.8073V68.5603L55.245 68.2994C54.8685 68.5523 54.584 68.9203 54.434 69.3483C54.1032 70.1698 53.9964 71.0643 54.1247 71.9406C54.2529 72.8168 54.6116 73.6432 55.164 74.3353C55.745 75.3353 57.107 75.9073 58.901 75.9073C60.564 75.9112 62.1939 75.4427 63.601 74.5563L64.601 73.8893V77.8073C64.6 82.4753 64.27 82.6373 61.703 83.8983ZM47.203 105.798C47.4834 102.278 48.8766 98.9377 51.181 96.2613C54.316 92.3433 62.128 86.7154 63.654 86.6314H63.688C63.7395 86.6258 63.7912 86.6397 63.833 86.6703L63.859 86.6894C63.9196 86.7241 63.9706 86.7733 64.0075 86.8327C64.0443 86.892 64.0658 86.9596 64.07 87.0293C64.385 88.9683 59.356 96.6033 55.836 100.129C50.998 104.16 47.447 106.368 47.122 106.112C47.113 106.105 47.097 106.038 47.193 105.848L47.203 105.798Z" fill="#FACC15"/>
<path d="M77.74 52.0893C77.6324 51.7699 77.4191 51.4967 77.1353 51.3149C76.8515 51.1331 76.5142 51.0535 76.179 51.0893C75.7359 51.1014 75.2974 51.182 74.879 51.3284C74.4107 51.4194 73.9254 51.3534 73.4984 51.1403C73.0715 50.9273 72.7269 50.5793 72.518 50.1503C71.336 48.2393 71.404 44.8504 72.668 42.2734C73.945 40.4734 75.34 38.0923 74.738 36.9233C74.6392 36.7278 74.4874 36.564 74.3 36.4505C74.1126 36.337 73.8971 36.2784 73.678 36.2813C72.209 36.2813 70.478 38.8873 69.578 40.4503L67.098 42.9293L66.235 42.0663C65.9983 41.4413 65.5636 40.911 64.9971 40.5563C64.4306 40.2017 63.7636 40.0422 63.098 40.1023H62.728L62.464 40.3663C62.126 40.6301 61.8737 40.9881 61.739 41.3952C61.6043 41.8022 61.5931 42.24 61.707 42.6533C61.7998 42.87 61.9466 43.0593 62.1334 43.203C62.3202 43.3468 62.5408 43.4402 62.774 43.4744C65.274 45.3694 63.298 49.3244 62.329 50.9394L62.295 51.0003C61.24 53.1093 60.595 54.4583 60.595 55.4003V55.5893L60.69 55.8033C61.039 56.5033 61.399 57.2213 62.209 57.2213C63.209 57.2213 63.674 56.4014 66.275 51.8504L67.729 48.9503L67.829 49.2503C68.596 52.2663 71.447 55.6253 74.311 55.6253C74.6738 55.6266 75.0345 55.5692 75.379 55.4553L75.479 55.4213L75.591 55.3503C77.254 54.2483 78.034 53.0593 77.74 52.0893Z" fill="#FACC15"/>
<path d="M33.905 86.2004C33.522 85.4334 33.122 84.4343 32.731 83.4553C32.345 82.4923 31.946 81.4953 31.552 80.6993C30.74 77.5073 29.783 76.8993 28.3 76.8993H27.928L27.664 77.1633C26.6532 78.2131 26.0007 79.5559 25.8 80.9993C25.757 81.817 25.6005 82.6248 25.335 83.3993C25.1765 83.8643 25.0673 84.3446 25.009 84.8323C24.8745 85.1419 24.8142 85.4786 24.8329 85.8157C24.8517 86.1527 24.9489 86.4806 25.117 86.7733C25.2349 86.9375 25.3906 87.0708 25.5709 87.162C25.7513 87.2532 25.9509 87.2996 26.153 87.2974C27.301 87.2974 28.553 85.8344 29.107 83.8684L30.635 88.4504C30.957 89.7344 31.393 91.1084 31.815 92.4374C32.3649 93.9142 32.7619 95.4435 33 97.0014V99.9584L33.5 100.206C33.8041 100.365 34.1411 100.45 34.484 100.454C36.523 100.454 37.276 97.5214 37.984 93.9784L38.001 93.8783V93.7983C37.9303 92.0464 38.3968 90.3147 39.338 88.8353L39.601 88.5713V88.1983C39.7515 86.8556 39.988 85.5238 40.309 84.2113C40.829 81.7273 41.542 78.3263 41.994 74.7113C42.6929 68.8715 43.7428 63.079 45.138 57.3653C46.918 54.5803 48.553 48.5053 49.175 46.0153C49.6073 44.0061 50.1951 42.0335 50.933 40.1153C51.2689 39.3802 51.494 38.5994 51.601 37.7983C51.601 34.4983 53.257 31.4983 53.901 31.4983H54.031L54.186 31.4523C56.448 30.6983 63.204 30.6983 75.46 30.6983C79.394 31.0263 81.769 31.2243 83.06 31.2243C83.967 31.2243 84.807 31.1623 85.115 30.4243C85.432 29.6593 84.833 29.0603 84.14 28.3683L84.069 28.2993L84.002 28.2543C81.738 26.7463 71.028 26.1943 64.311 26.1843H64.111C60.892 26.1843 57.891 26.2963 55.426 26.5013L50.552 27.3103L49.952 27.4103L48.219 35.2104C47.756 37.5264 46.747 41.2103 45.677 45.1223L45.667 45.1603C44.897 47.9743 44.101 50.8843 43.439 53.5303C41.086 59.8183 39.425 67.1303 39.402 71.2793C38.628 74.3793 37.017 80.8203 36.209 85.6623C35.809 87.6773 35.481 89.3024 35.227 90.4454C34.5382 89.2714 34.1184 87.9592 33.998 86.6034V86.4143L33.905 86.2004Z" fill="#7E22CE"/>
<path d="M26.345 23.9993C26.0444 23.7861 25.6899 23.6617 25.322 23.6403C24.294 23.6403 23.956 24.2683 21.757 28.3573C21.257 29.2913 20.649 30.4173 19.908 31.7743C17.3291 36.9891 15.1647 42.3988 13.435 47.9533C11 56.0703 11 57.7933 11 69.0023C11 77.1333 11 81.2143 12.7 84.6023C13.6316 87.0311 14.139 89.6018 14.2 92.2024V92.3144L14.235 92.4504C15.6987 97.8503 17.8795 103.03 20.719 107.85L20.772 107.943L20.864 108.043C21.3817 108.574 21.8704 109.133 22.328 109.716C23.169 110.755 23.776 111.506 24.7 111.506C25.208 111.499 25.7019 111.338 26.1172 111.046C26.5326 110.753 26.85 110.342 27.028 109.866C27.2822 109.202 27.3333 108.477 27.1746 107.783C27.016 107.09 26.6548 106.459 26.137 105.971L26.093 105.929C19.781 100.406 15.2 84.2053 15.2 67.4063C15.2 56.1063 16.085 51.3843 19.931 42.1533L19.963 42.0703L19.979 42.0023C21.568 34.8513 23.105 31.8423 25.379 28.8023C27.067 27.1023 27.201 26.1173 27.201 25.0073V24.4513L26.701 24.2023C26.567 24.1293 26.452 24.0623 26.345 23.9993Z" fill="#57534E"/>
</svg>
